img/mirror_arc.svg

<svg version="1.1" xmlns="http://www.w3.org/2000/svg" xmlns:xlink="http://www.w3.org/1999/xlink" width="101" height="100"><defs/><g><rect fill="black" stroke="none" x="0" y="0" width="101" height="100"/><g/><path fill="none" stroke="rgb(0,255,0)" paint-order="fill stroke markers" d=" M -32.9016963927788 41.96637107529786 L -21.604514933538837 87.3517710848879" stroke-miterlimit="10" stroke-width="4" stroke-dasharray=""/><path fill="none" stroke="rgb(128,128,128)" paint-order="fill stroke markers" d=" M -34.84247510258016 42.4494631985847 L -23.54529364334019 87.83486320817474" stroke-opacity="255" stroke-miterlimit="10" stroke-width="2" stroke-dasharray=""/><path fill="none" stroke="rgb(168,168,168)" paint-order="fill stroke markers" d=" M 29.76387969002033 6.535638268542286 A 110.78532003221967 110.78532003221967 0 0 1 89.01477214836933 84.77426846450889" stroke-miterlimit="10" stroke-dasharray=""/><path fill="none" stroke="rgb(255,255,128)" paint-order="fill stroke markers" d=" M -33.63474479436305 47.301409973088084 L 56.14510010984239 24.953712276231517" stroke-miterlimit="10" stroke-dasharray=""/><path fill="none" stroke="rgb(255,255,128)" paint-order="fill stroke markers" d=" M -31.21928417792884 57.00530352209486 L 64.11160601385265 33.27585826128701" stroke-miterlimit="10" stroke-dasharray=""/><path fill="none" stroke="rgb(255,255,128)" paint-order="fill stroke markers" d=" M -28.80382356149463 66.70919707110163 L 70.83942240054726 41.90633468401223" stroke-miterlimit="10" stroke-dasharray=""/><path fill="none" stroke="rgb(255,255,128)" paint-order="fill stroke markers" d=" M -26.38836294506042 76.41309062010839 L 76.4834873671025 50.80657487322264" stroke-miterlimit="10" stroke-dasharray=""/><path fill="none" stroke="rgb(255,255,128)" paint-order="fill stroke markers" d=" M -23.972902328626205 86.11698416911517 L 81.14310999333438 59.95185914604677" stroke-miterlimit="10" stroke-dasharray=""/><path fill="none" stroke="rgb(255,255,128)" paint-order="fill stroke markers" d=" M 56.14510010984239 24.953712276231517 L -366.72456772179794 2302.453488439658" stroke-miterlimit="10" stroke-dasharray=""/><path fill="none" stroke="rgb(255,255,128)" paint-order="fill stroke markers" d=" M 64.11160601385265 33.27585826128701 L -826.3305724177433 2189.352134455209" stroke-miterlimit="10" stroke-dasharray=""/><path fill="none" stroke="rgb(255,255,128)" paint-order="fill stroke markers" d=" M 70.83942240054726 41.90633468401223 L -1234.1487746067191 1993.942927085041" stroke-miterlimit="10" stroke-dasharray=""/><path fill="none" stroke="rgb(255,255,128)" paint-order="fill stroke markers" d=" M 76.4834873671025 50.80657487322264 L -1584.4575555909526 1731.0534572767463" stroke-miterlimit="10" stroke-dasharray=""/><path fill="none" stroke="rgb(255,255,128)" paint-order="fill stroke markers" d=" M 81.14310999333438 59.95185914604677 L -1872.3648145716295 1413.164144091516" stroke-miterlimit="10" stroke-dasharray=""/><path fill="none" stroke="rgb(0,255,0)" paint-order="fill stroke markers" d=" M -32.9016963927788 41.96637107529786 L -21.604514933538837 87.3517710848879" stroke-miterlimit="10" stroke-width="4" stroke-dasharray=""/><path fill="none" stroke="rgb(128,128,128)" paint-order="fill stroke markers" d=" M -34.84247510258016 42.4494631985847 L -23.54529364334019 87.83486320817474" stroke-opacity="255" stroke-miterlimit="10" stroke-width="2" stroke-dasharray=""/><path fill="none" stroke="rgb(168,168,168)" paint-order="fill stroke markers" d=" M 29.76387969002033 6.535638268542286 A 110.78532003221967 110.78532003221967 0 0 1 89.01477214836933 84.77426846450889" stroke-miterlimit="10" stroke-dasharray=""/></g></svg>

<svg xmlns="http://www.w3.org/2000/svg" width="101" height="100"><path d="M0 0h101v100H0z"/><path fill="none" stroke="#0F0" paint-order="fill stroke markers" d="m-32.902 41.966 11.297 45.386" stroke-miterlimit="10" stroke-width="4"/><path fill="none" stroke="gray" paint-order="fill stroke markers" d="m-34.842 42.45 11.297 45.385" stroke-opacity="255" stroke-miterlimit="10" stroke-width="2"/><path fill="none" stroke="#A8A8A8" paint-order="fill stroke markers" d="M29.764 6.536a110.785 110.785 0 0 1 59.25 78.238" stroke-miterlimit="10"/><path fill="none" stroke="#FFFF80" paint-order="fill stroke markers" d="m-33.635 47.301 89.78-22.347M-31.22 57.005l95.332-23.73M-28.804 66.71 70.84 41.905M-26.388 76.413 76.483 50.807M-23.973 86.117 81.143 59.952M56.145 24.954l-422.87 2277.5M64.112 33.276l-890.443 2156.076M70.84 41.906-1234.15 1993.943M76.483 50.807l-1660.94 1680.246M81.143 59.952l-1953.508 1353.212" stroke-miterlimit="10"/><path fill="none" stroke="#0F0" paint-order="fill stroke markers" d="m-32.902 41.966 11.297 45.386" stroke-miterlimit="10" stroke-width="4"/><path fill="none" stroke="gray" paint-order="fill stroke markers" d="m-34.842 42.45 11.297 45.385" stroke-opacity="255" stroke-miterlimit="10" stroke-width="2"/><path fill="none" stroke="#A8A8A8" paint-order="fill stroke markers" d="M29.764 6.536a110.785 110.785 0 0 1 59.25 78.238" stroke-miterlimit="10"/></svg>
